Hatter-kde/actions/22/run-build-clean.svg

<svg xmlns="http://www.w3.org/2000/svg" viewBox="0 0 22 22">
  <defs id="defs3051">
    <style type="text/css" id="current-color-scheme">
      .ColorScheme-Text {
        color:#363636;
      }
      </style>
  </defs>
 <path 
     style="fill:currentColor;fill-opacity:1;stroke:none" 
     d="M 11 3 C 10.324795 3.003785 9.6527857 3.0930363 9 3.265625 L 9 4.2988281 L 9 4.3105469 A 7 7 0 0 0 7.6835938 4.8554688 L 7.6757812 4.8476562 L 6.9433594 4.1152344 C 5.7764037 4.8032844 4.8032842 5.7764039 4.1152344 6.9433594 L 4.6367188 7.4648438 L 4.8554688 7.6835938 A 7 7 0 0 0 4.3085938 9 L 4.2949219 9 L 3.2597656 9 C 3.089154 9.6530391 3.001872 10.325045 3 11 C 3.00378 11.675205 3.093036 12.347214 3.265625 13 L 4.2988281 13 L 4.3105469 13 A 7 7 0 0 0 4.8554688 14.316406 L 4.6367188 14.535156 L 4.1152344 15.056641 C 4.8032842 16.223596 5.7764037 17.196716 6.9433594 17.884766 L 7.4648438 17.363281 L 7.6835938 17.144531 A 7 7 0 0 0 9 17.691406 L 9 18 L 9 18.740234 C 9.6530391 18.910846 10.325044 18.998128 11 19 C 11.334998 18.998115 11.668533 18.97338 12 18.929688 L 12 17.923828 C 11.669555 17.972638 11.334906 17.998872 11 18 C 10.664546 17.999498 10.331064 17.974129 10 17.925781 L 10 17.921875 L 10 17 L 10 16.910156 A 6 6 0 0 1 7.5273438 15.886719 L 7.4648438 15.949219 L 6.8144531 16.599609 L 6.8105469 16.603516 C 6.2742384 16.201454 5.7991129 15.72484 5.3984375 15.1875 L 5.4003906 15.185547 L 6.0507812 14.535156 L 6.1152344 14.470703 A 6 6 0 0 1 5.0859375 12 L 5 12 L 4.0800781 12 L 4.0761719 12 C 4.0273622 11.669555 4.0011276 11.334906 4 11 C 4.0005022 10.664546 4.0258707 10.331064 4.0742188 10 L 4.078125 10 L 5 10 L 5.0898438 10 A 6 6 0 0 1 6.1132812 7.5273438 L 6.0507812 7.4648438 L 5.4003906 6.8144531 L 5.3964844 6.8105469 C 5.7985462 6.2742384 6.2751604 5.7991129 6.8125 5.3984375 L 6.8144531 5.4003906 L 7.4648438 6.0507812 L 7.5292969 6.1152344 A 6 6 0 0 1 10 5.0859375 L 10 5 L 10 4.0800781 L 10 4.0761719 C 10.330445 4.0273622 10.665094 4.0011276 11 4 C 11.335454 4.0005001 11.668936 4.0258701 12 4.0742188 L 12 4.078125 L 12 5 L 12 5.0898438 A 6 6 0 0 1 14.472656 6.1132812 L 14.535156 6.0507812 L 15.185547 5.4003906 L 15.189453 5.3964844 C 15.725762 5.7985462 16.200888 6.2751604 16.601562 6.8125 L 16.599609 6.8144531 L 15.949219 7.4648438 L 15.884766 7.5292969 A 6 6 0 0 1 16.914062 10 L 17 10 L 17.919922 10 L 17.923828 10 C 17.972638 10.330445 17.998873 10.665094 18 11 C 17.999505 11.335454 17.974131 11.668936 17.925781 12 L 17.921875 12 L 17 12 L 16.910156 12 A 6 6 0 0 1 16.179688 14 L 17.314453 14 A 7 7 0 0 0 17.691406 13 L 18 13 L 18.740234 13 C 18.910846 12.346961 18.998128 11.674956 19 11 C 18.996215 10.324795 18.906964 9.6527857 18.734375 9 L 18 9 L 17.689453 9 A 7 7 0 0 0 17.144531 7.6835938 L 17.152344 7.6757812 L 17.884766 6.9433594 C 17.196716 5.7764039 16.223597 4.8032844 15.056641 4.1152344 L 14.328125 4.84375 L 14.316406 4.8554688 A 7 7 0 0 0 13 4.3085938 L 13 4.2949219 L 13 3.2597656 C 12.346961 3.0891541 11.674956 3.0018721 11 3 z M 9 8 L 9 14 L 14 11 L 9 8 z M 15 15 L 13 17 L 15 19 L 19 19 L 19 15 L 15 15 z M 15.599609 16 L 18 16 L 18 18 L 15.599609 18 L 14.599609 17 L 15.599609 16 z "
	 class="ColorScheme-Text"
     />
</svg>

<?xml version="1.0" encoding="UTF-8"?>
<svg viewBox="0 0 22 22" xmlns="http://www.w3.org/2000/svg">
 <defs id="defs3051">
  <style id="current-color-scheme" type="text/css">.ColorScheme-Text {
        color:#363636;
      }</style>
 </defs>
 <path class="ColorScheme-Text" d="m11 3c-0.6752 0.003785-1.3472 0.093036-2 0.26562v1.0332 0.011719a7 7 0 0 0-1.3164 0.54492l-0.74023-0.74023c-1.167 0.68805-2.1401 1.6612-2.8281 2.8281l0.74023 0.74023a7 7 0 0 0-0.54688 1.3164h-0.013672-1.0352c-0.17061 0.65304-0.25789 1.325-0.25977 2 0.00378 0.6752 0.093036 1.3472 0.26562 2h1.0332 0.011719a7 7 0 0 0 0.54492 1.3164l-0.74023 0.74024c0.68805 1.167 1.6612 2.1401 2.8281 2.8281l0.74023-0.74024a7 7 0 0 0 1.3164 0.54688v0.30859 0.74023c0.65304 0.17061 1.325 0.25789 2 0.25977 0.335-0.001885 0.66853-0.02662 1-0.070312v-1.0059c-0.33044 0.04881-0.66509 0.075044-1 0.076172-0.33545-5.02e-4 -0.66894-0.025871-1-0.074219v-0.003906-0.92188-0.089844a6 6 0 0 1-2.4727-1.0234l-0.71289 0.71289-0.0039062 0.003907c-0.53631-0.40206-1.0114-0.87868-1.4121-1.416l0.0019531-0.001953 0.71484-0.71484a6 6 0 0 1-1.0293-2.4707h-0.085938-0.91992-0.0039062c-0.04881-0.33044-0.075044-0.66509-0.076172-1 5.022e-4 -0.33545 0.025871-0.66894 0.074219-1h0.0039062 0.92188 0.089844a6 6 0 0 1 1.0234-2.4727l-0.7168-0.7168c0.40206-0.53631 0.87868-1.0114 1.416-1.4121l0.7168 0.7168a6 6 0 0 1 2.4707-1.0293v-0.085938-0.91992-0.0039062c0.33044-0.04881 0.66509-0.075044 1-0.076172 0.33545 5.001e-4 0.66894 0.02587 1 0.074219v0.0039062 0.92188 0.089844a6 6 0 0 1 2.4727 1.0234l0.71289-0.71289 0.003906-0.0039062c0.53631 0.40206 1.0114 0.87868 1.4121 1.416l-0.001953 0.0019531-0.71484 0.71484a6 6 0 0 1 1.0293 2.4707h0.085938 0.91992 0.003906c0.04881 0.33044 0.075045 0.66509 0.076172 1-4.95e-4 0.33545-0.025869 0.66894-0.074219 1h-0.003906-0.92188-0.089844a6 6 0 0 1-0.73047 2h1.1348a7 7 0 0 0 0.37695-1h0.30859 0.74023c0.17061-0.65304 0.25789-1.325 0.25977-2-0.003785-0.6752-0.093036-1.3472-0.26562-2h-0.73438-0.31055a7 7 0 0 0-0.54492-1.3164l0.007813-0.0078126 0.73242-0.73242c-0.68805-1.167-1.6612-2.1401-2.8281-2.8281l-0.72852 0.72852-0.011719 0.011719a7 7 0 0 0-1.3164-0.54688v-0.013672-1.0352c-0.65304-0.17061-1.325-0.25789-2-0.25977zm-2 5v6l5-3-5-3zm6 7-2 2 2 2h4v-4h-4zm0.59961 1h2.4004v2h-2.4004l-1-1 1-1z" fill="currentColor"/>
</svg>
